X: 129013
M: 2/4
L: 1/16
K: A
|:\
ve2ag fedc | (Bc)de c2A2 |
e2ag fedc | (dB)AG A2A2 |\
e2ag fedc | (Bc)de c2A2 |\
e2ag fedc | (dB)AG A4 |]


